static/img/kroki/0fbda8335cfd465830fab934950da828.svg

<?xml version="1.0" encoding="us-ascii" standalone="no"?><svg xmlns="http://www.w3.org/2000/svg" xmlns:xlink="http://www.w3.org/1999/xlink" contentStyleType="text/css" height="680px" preserveAspectRatio="none" style="width:425px;height:680px;" version="1.1" viewBox="0 0 425 680" width="425px" zoomAndPan="magnify"><defs/><g><!--class account--><g id="elem_account"><rect codeLine="22" fill="#3D176E" height="39.7891" id="account" rx="2.5" ry="2.5" style="stroke:#000D19;stroke-width:0.5;" width="107" x="251" y="438.76"/><ellipse cx="266" cy="458.6545" fill="#ADD1B2" rx="11" ry="11" style="stroke:#181818;stroke-width:1.0;"/><path d="M268.9688,464.2952 Q268.3906,464.592 267.75,464.7327 Q267.1094,464.8889 266.4063,464.8889 Q263.9063,464.8889 262.5781,463.2483 Q261.2656,461.592 261.2656,458.467 Q261.2656,455.342 262.5781,453.6858 Q263.9063,452.0295 266.4063,452.0295 Q267.1094,452.0295 267.75,452.1858 Q268.4063,452.342 268.9688,452.6389 L268.9688,455.3577 Q268.3438,454.7795 267.75,454.5139 Q267.1563,454.2327 266.5313,454.2327 Q265.1875,454.2327 264.5,455.3108 Q263.8125,456.3733 263.8125,458.467 Q263.8125,460.5608 264.5,461.6389 Q265.1875,462.7014 266.5313,462.7014 Q267.1563,462.7014 267.75,462.4358 Q268.3438,462.1545 268.9688,461.5764 L268.9688,464.2952 Z " fill="#000000"/><text fill="#D9B8FF" font-family="Helvetica" font-size="17" lengthAdjust="spacing" textLength="65" x="285" y="464.5398">account</text></g><!--class dockerhub_namespace--><g id="elem_dockerhub_namespace"><rect codeLine="24" fill="#3D176E" height="74.0859" id="dockerhub_namespace" rx="2.5" ry="2.5" style="stroke:#000D19;stroke-width:0.5;" width="232" x="30.5" y="599.54"/><ellipse cx="45.5" cy="619.4345" fill="#ADD1B2" rx="11" ry="11" style="stroke:#181818;stroke-width:1.0;"/><path d="M48.4688,625.0752 Q47.8906,625.372 47.25,625.5127 Q46.6094,625.6689 45.9063,625.6689 Q43.4063,625.6689 42.0781,624.0283 Q40.7656,622.372 40.7656,619.247 Q40.7656,616.122 42.0781,614.4658 Q43.4063,612.8095 45.9063,612.8095 Q46.6094,612.8095 47.25,612.9658 Q47.9063,613.122 48.4688,613.4189 L48.4688,616.1377 Q47.8438,615.5595 47.25,615.2939 Q46.6563,615.0127 46.0313,615.0127 Q44.6875,615.0127 44,616.0908 Q43.3125,617.1533 43.3125,619.247 Q43.3125,621.3408 44,622.4189 Q44.6875,623.4814 46.0313,623.4814 Q46.6563,623.4814 47.25,623.2158 Q47.8438,622.9345 48.4688,622.3564 L48.4688,625.0752 Z " fill="#000000"/><text fill="#D9B8FF" font-family="Helvetica" font-size="17" lengthAdjust="spacing" textLength="190" x="64.5" y="625.3198">dockerhub_namespace</text><line style="stroke:#000D19;stroke-width:0.5;" x1="31.5" x2="261.5" y1="639.3291" y2="639.3291"/><text fill="#D9B8FF" font-family="sans-serif" font-size="14" font-weight="bold" lengthAdjust="spacing" textLength="45" x="41.5" y="661.3242">count</text><text fill="#D9B8FF" font-family="sans-serif" font-size="14" lengthAdjust="spacing" textLength="44" x="86.5" y="661.3242">: int64</text></g><!--class dockerhub_resource--><g id="elem_dockerhub_resource"><rect codeLine="27" fill="#3D176E" height="39.7891" id="dockerhub_resource" rx="2.5" ry="2.5" style="stroke:#000D19;stroke-width:0.5;" width="209" x="7" y="438.76"/><ellipse cx="22" cy="458.6545" fill="#ADD1B2" rx="11" ry="11" style="stroke:#181818;stroke-width:1.0;"/><path d="M24.9688,464.2952 Q24.3906,464.592 23.75,464.7327 Q23.1094,464.8889 22.4063,464.8889 Q19.9063,464.8889 18.5781,463.2483 Q17.2656,461.592 17.2656,458.467 Q17.2656,455.342 18.5781,453.6858 Q19.9063,452.0295 22.4063,452.0295 Q23.1094,452.0295 23.75,452.1858 Q24.4063,452.342 24.9688,452.6389 L24.9688,455.3577 Q24.3438,454.7795 23.75,454.5139 Q23.1563,454.2327 22.5313,454.2327 Q21.1875,454.2327 20.5,455.3108 Q19.8125,456.3733 19.8125,458.467 Q19.8125,460.5608 20.5,461.6389 Q21.1875,462.7014 22.5313,462.7014 Q23.1563,462.7014 23.75,462.4358 Q24.3438,462.1545 24.9688,461.5764 L24.9688,464.2952 Z " fill="#000000"/><text fill="#D9B8FF" font-family="Helvetica" font-size="17" lengthAdjust="spacing" textLength="167" x="41" y="464.5398">dockerhub_resource</text></g><!--class resource--><g id="elem_resource"><rect codeLine="29" fill="#3D176E" height="310.7578" id="resource" rx="2.5" ry="2.5" style="stroke:#000D19;stroke-width:0.5;" width="227" x="191" y="7"/><ellipse cx="259.75" cy="26.8945" fill="#ADD1B2" rx="11" ry="11" style="stroke:#181818;stroke-width:1.0;"/><path d="M262.7188,32.5352 Q262.1406,32.832 261.5,32.9727 Q260.8594,33.1289 260.1563,33.1289 Q257.6563,33.1289 256.3281,31.4883 Q255.0156,29.832 255.0156,26.707 Q255.0156,23.582 256.3281,21.9258 Q257.6563,20.2695 260.1563,20.2695 Q260.8594,20.2695 261.5,20.4258 Q262.1563,20.582 262.7188,20.8789 L262.7188,23.5977 Q262.0938,23.0195 261.5,22.7539 Q260.9063,22.4727 260.2813,22.4727 Q258.9375,22.4727 258.25,23.5508 Q257.5625,24.6133 257.5625,26.707 Q257.5625,28.8008 258.25,29.8789 Q258.9375,30.9414 260.2813,30.9414 Q260.9063,30.9414 261.5,30.6758 Q262.0938,30.3945 262.7188,29.8164 L262.7188,32.5352 Z " fill="#000000"/><text fill="#D9B8FF" font-family="Helvetica" font-size="17" lengthAdjust="spacing" textLength="71" x="285.25" y="32.7798">resource</text><line style="stroke:#000D19;stroke-width:0.5;" x1="192" x2="417" y1="46.7891" y2="46.7891"/><text fill="#D9B8FF" font-family="sans-serif" font-size="14" font-weight="bold" lengthAdjust="spacing" textLength="29" x="202" y="68.7842">age</text><text fill="#D9B8FF" font-family="sans-serif" font-size="14" lengthAdjust="spacing" textLength="66" x="231" y="68.7842">: duration</text><text fill="#D9B8FF" font-family="sans-serif" font-size="14" font-weight="bold" lengthAdjust="spacing" textLength="43" x="202" y="95.0811">atime</text><text fill="#D9B8FF" font-family="sans-serif" font-size="14" lengthAdjust="spacing" textLength="70" x="245" y="95.0811">: datetime</text><text fill="#D9B8FF" font-family="sans-serif" font-size="14" font-weight="bold" lengthAdjust="spacing" textLength="43" x="202" y="121.3779">ctime</text><text fill="#D9B8FF" font-family="sans-serif" font-size="14" lengthAdjust="spacing" textLength="70" x="245" y="121.3779">: datetime</text><text fill="#D9B8FF" font-family="sans-serif" font-size="14" font-weight="bold" lengthAdjust="spacing" textLength="14" x="202" y="147.6748">id</text><text fill="#D9B8FF" font-family="sans-serif" font-size="14" lengthAdjust="spacing" textLength="48" x="216" y="147.6748">: string</text><text fill="#D9B8FF" font-family="sans-serif" font-size="14" font-weight="bold" lengthAdjust="spacing" textLength="33" x="202" y="173.9717">kind</text><text fill="#D9B8FF" font-family="sans-serif" font-size="14" lengthAdjust="spacing" textLength="48" x="235" y="173.9717">: string</text><text fill="#D9B8FF" font-family="sans-serif" font-size="14" font-weight="bold" lengthAdjust="spacing" textLength="90" x="202" y="200.2686">last_access</text><text fill="#D9B8FF" font-family="sans-serif" font-size="14" lengthAdjust="spacing" textLength="66" x="292" y="200.2686">: duration</text><text fill="#D9B8FF" font-family="sans-serif" font-size="14" font-weight="bold" lengthAdjust="spacing" textLength="90" x="202" y="226.5654">last_update</text><text fill="#D9B8FF" font-family="sans-serif" font-size="14" lengthAdjust="spacing" textLength="66" x="292" y="226.5654">: duration</text><text fill="#D9B8FF" font-family="sans-serif" font-size="14" font-weight="bold" lengthAdjust="spacing" textLength="48" x="202" y="252.8623">mtime</text><text fill="#D9B8FF" font-family="sans-serif" font-size="14" lengthAdjust="spacing" textLength="70" x="250" y="252.8623">: datetime</text><text fill="#D9B8FF" font-family="sans-serif" font-size="14" font-weight="bold" lengthAdjust="spacing" textLength="43" x="202" y="279.1592">name</text><text fill="#D9B8FF" font-family="sans-serif" font-size="14" lengthAdjust="spacing" textLength="48" x="245" y="279.1592">: string</text><text fill="#D9B8FF" font-family="sans-serif" font-size="14" font-weight="bold" lengthAdjust="spacing" textLength="34" x="202" y="305.4561">tags</text><text fill="#D9B8FF" font-family="sans-serif" font-size="14" lengthAdjust="spacing" textLength="171" x="236" y="305.4561">: dictionary[string, string]</text></g><!--reverse link resource to account--><g id="link_resource_account"><path codeLine="41" d="M304.5,338.65 C304.5,379.32 304.5,417.02 304.5,438.67 " fill="none" id="resource-backto-account" style="stroke:#FFAF37;stroke-width:2.0;"/><polygon fill="none" points="297.5,338.84,304.5,318.84,311.5,338.84,297.5,338.84" style="stroke:#FFAF37;stroke-width:2.0;"/></g><!--reverse link account to dockerhub_namespace--><g id="link_account_dockerhub_namespace"><path codeLine="42" d="M273.57,494.09 C246.32,524.44 206.75,568.5 179.03,599.37 " fill="none" id="account-backto-dockerhub_namespace" style="stroke:#FFAF37;stroke-width:2.0;"/><polygon fill="none" points="267.72,490.02,286.29,479.81,278.14,499.37,267.72,490.02" style="stroke:#FFAF37;stroke-width:2.0;"/></g><!--reverse link dockerhub_resource to dockerhub_namespace--><g id="link_dockerhub_resource_dockerhub_namespace"><path codeLine="43" d="M119.38,499.27 C125.35,529.29 133.5,570.22 139.3,599.37 " fill="none" id="dockerhub_resource-backto-dockerhub_namespace" style="stroke:#FFAF37;stroke-width:2.0;"/><polygon fill="none" points="112.35,500.79,115.31,479.81,126.08,498.06,112.35,500.79" style="stroke:#FFAF37;stroke-width:2.0;"/></g><!--SRC=[XP9DRy8m38Rl_8f8krL3Wh7nCUt2aARjWgQnspGXaxWbWYR8SOVOntzVGW6Lji2jVTydjb_BSwrGOBhYZKWndI6vXbjeimA2L0o9x7fabvR4LHn3tEcLpITh-28mXXJ5Cow_aBM4Cl4-rt9Xq3bnKx0UGIuIifbHUNacCCvRQBX0ZPRWt92Pz2nZB0oZ1hD-79V9Sj6hZchtkbZ1B2ca7T9gjLHxK4OkjZgR-q1Cz3UATd5fOyjO6RFIOakTdJ8GXI4hGVV-oHbVGIbj4d5NqDxocSWW7UcJEIYx3dGCIrTiunW9BMzMEAgama5VnRrQ-EKKBCFc14ZfBHO_ZR-TegnS8CspsTJuGFvG97etYhPS5DqBRRXxMuCJEflHbjwR1IcA8C7mN6K4hAq92kiqru0nV8SsDPfMGN3-DatYVttAOy7tugbFuY-_r67hPAjGg-IaDNr2uAF234bUKSlm36ZpaNlNE-RJHps4VFXjDflxZJRscytLcgqsQbPt4lu7]--></g></svg>

<svg xmlns="http://www.w3.org/2000/svg" width="425" height="680" preserveAspectRatio="none" style="width:425px;height:680px"><rect width="107" height="39.789" x="251" y="438.76" fill="#3D176E" rx="2.5" ry="2.5" style="stroke:#000d19;stroke-width:.5"/><circle cx="266" cy="458.654" r="11" fill="#ADD1B2" style="stroke:#181818;stroke-width:1"/><path d="M268.969 464.295q-.578.297-1.219.438-.64.156-1.344.156-2.5 0-3.828-1.64-1.312-1.657-1.312-4.782t1.312-4.781q1.328-1.656 3.828-1.656.703 0 1.344.156.656.156 1.219.453v2.719q-.625-.579-1.219-.844-.594-.281-1.219-.281-1.344 0-2.031 1.078-.688 1.062-.688 3.156 0 2.094.688 3.172.688 1.062 2.031 1.062.625 0 1.219-.265.594-.281 1.219-.86v2.72Z"/><text x="285" y="464.54" fill="#D9B8FF" font-family="Helvetica" font-size="17" textLength="65">account</text><rect width="232" height="74.086" x="30.5" y="599.54" fill="#3D176E" rx="2.5" ry="2.5" style="stroke:#000d19;stroke-width:.5"/><circle cx="45.5" cy="619.434" r="11" fill="#ADD1B2" style="stroke:#181818;stroke-width:1"/><path d="M48.469 625.075q-.578.297-1.219.438-.64.156-1.344.156-2.5 0-3.828-1.64-1.312-1.657-1.312-4.782t1.312-4.781q1.328-1.657 3.828-1.657.703 0 1.344.157.656.156 1.219.453v2.719q-.625-.579-1.219-.844-.594-.281-1.219-.281-1.343 0-2.031 1.078-.688 1.062-.688 3.156 0 2.094.688 3.172.688 1.062 2.031 1.062.625 0 1.219-.265.594-.282 1.219-.86v2.72Z"/><text x="64.5" y="625.32" fill="#D9B8FF" font-family="Helvetica" font-size="17" textLength="190">dockerhub_namespace</text><path d="M31.5 639.329h230" style="stroke:#000d19;stroke-width:.5"/><text x="41.5" y="661.324" fill="#D9B8FF" font-family="sans-serif" font-size="14" font-weight="bold" textLength="45">count</text><text x="86.5" y="661.324" fill="#D9B8FF" font-family="sans-serif" font-size="14" textLength="44">: int64</text><rect width="209" height="39.789" x="7" y="438.76" fill="#3D176E" rx="2.5" ry="2.5" style="stroke:#000d19;stroke-width:.5"/><circle cx="22" cy="458.654" r="11" fill="#ADD1B2" style="stroke:#181818;stroke-width:1"/><path d="M24.969 464.295q-.578.297-1.219.438-.64.156-1.344.156-2.5 0-3.828-1.64-1.312-1.657-1.312-4.782t1.312-4.781q1.328-1.656 3.828-1.656.703 0 1.344.156.656.156 1.219.453v2.719q-.625-.579-1.219-.844-.594-.281-1.219-.281-1.343 0-2.031 1.078-.688 1.062-.688 3.156 0 2.094.688 3.172.688 1.062 2.031 1.062.625 0 1.219-.265.594-.281 1.219-.86v2.72Z"/><text x="41" y="464.54" fill="#D9B8FF" font-family="Helvetica" font-size="17" textLength="167">dockerhub_resource</text><rect width="227" height="310.758" x="191" y="7" fill="#3D176E" rx="2.5" ry="2.5" style="stroke:#000d19;stroke-width:.5"/><circle cx="259.75" cy="26.895" r="11" fill="#ADD1B2" style="stroke:#181818;stroke-width:1"/><path d="M262.719 32.535q-.578.297-1.219.438-.64.156-1.344.156-2.5 0-3.828-1.64-1.312-1.657-1.312-4.782t1.312-4.781q1.328-1.656 3.828-1.656.703 0 1.344.156.656.156 1.219.453v2.719q-.625-.578-1.219-.844-.594-.281-1.219-.281-1.344 0-2.031 1.078-.688 1.062-.688 3.156 0 2.094.688 3.172.688 1.062 2.031 1.062.625 0 1.219-.265.594-.281 1.219-.86v2.72Z"/><text x="285.25" y="32.78" fill="#D9B8FF" font-family="Helvetica" font-size="17" textLength="71">resource</text><path d="M192 46.789h225" style="stroke:#000d19;stroke-width:.5"/><text x="202" y="68.784" fill="#D9B8FF" font-family="sans-serif" font-size="14" font-weight="bold" textLength="29">age</text><text x="231" y="68.784" fill="#D9B8FF" font-family="sans-serif" font-size="14" textLength="66">: duration</text><text x="202" y="95.081" fill="#D9B8FF" font-family="sans-serif" font-size="14" font-weight="bold" textLength="43">atime</text><text x="245" y="95.081" fill="#D9B8FF" font-family="sans-serif" font-size="14" textLength="70">: datetime</text><text x="202" y="121.378" fill="#D9B8FF" font-family="sans-serif" font-size="14" font-weight="bold" textLength="43">ctime</text><text x="245" y="121.378" fill="#D9B8FF" font-family="sans-serif" font-size="14" textLength="70">: datetime</text><text x="202" y="147.675" fill="#D9B8FF" font-family="sans-serif" font-size="14" font-weight="bold" textLength="14">id</text><text x="216" y="147.675" fill="#D9B8FF" font-family="sans-serif" font-size="14" textLength="48">: string</text><text x="202" y="173.972" fill="#D9B8FF" font-family="sans-serif" font-size="14" font-weight="bold" textLength="33">kind</text><text x="235" y="173.972" fill="#D9B8FF" font-family="sans-serif" font-size="14" textLength="48">: string</text><text x="202" y="200.269" fill="#D9B8FF" font-family="sans-serif" font-size="14" font-weight="bold" textLength="90">last_access</text><text x="292" y="200.269" fill="#D9B8FF" font-family="sans-serif" font-size="14" textLength="66">: duration</text><text x="202" y="226.565" fill="#D9B8FF" font-family="sans-serif" font-size="14" font-weight="bold" textLength="90">last_update</text><text x="292" y="226.565" fill="#D9B8FF" font-family="sans-serif" font-size="14" textLength="66">: duration</text><text x="202" y="252.862" fill="#D9B8FF" font-family="sans-serif" font-size="14" font-weight="bold" textLength="48">mtime</text><text x="250" y="252.862" fill="#D9B8FF" font-family="sans-serif" font-size="14" textLength="70">: datetime</text><text x="202" y="279.159" fill="#D9B8FF" font-family="sans-serif" font-size="14" font-weight="bold" textLength="43">name</text><text x="245" y="279.159" fill="#D9B8FF" font-family="sans-serif" font-size="14" textLength="48">: string</text><text x="202" y="305.456" fill="#D9B8FF" font-family="sans-serif" font-size="14" font-weight="bold" textLength="34">tags</text><text x="236" y="305.456" fill="#D9B8FF" font-family="sans-serif" font-size="14" textLength="171">: dictionary[string, string]</text><path fill="none" d="M304.5 338.65v100.02m-7-99.83 7-20 7 20h-14z" style="stroke:#ffaf37;stroke-width:2"/><g fill="none"><path d="M273.57 494.09c-27.25 30.35-66.82 74.41-94.54 105.28" style="stroke:#ffaf37;stroke-width:2"/><path d="m267.72 490.02 18.57-10.21-8.15 19.56-10.42-9.35z" style="stroke:#ffaf37;stroke-width:2"/></g><g fill="none"><path d="M119.38 499.27c5.97 30.02 14.12 70.95 19.92 100.1" style="stroke:#ffaf37;stroke-width:2"/><path d="m112.35 500.79 2.96-20.98 10.77 18.25-13.73 2.73z" style="stroke:#ffaf37;stroke-width:2"/></g></svg>
